X: 23390
T: Lenny Chiasson's
R: reel
M: 4/4
K: Dmajor
|:"D"d2 D2 fedc|"G"AB B2 gfed|"A"c/d/e ec Agfe|f/g/a ge fdAG|
"D"F2z f fedc|"G"AB B2 gfed|"A"c/d/e ec Agfe|f/g/a "D"ge d4:|
|:"Bm"BF ~F2 BFBc|dcde fd B/c/d|"A"eAce aece|a2ab aece|
"Em"fdcd eAcA|"G"BGFG ADFA|"D"d2 Ad GdFd|"A"fage "G"fddc:|

